X: 1
T: Brisk Young Lads, The
M: 6/8
L: 1/8
R: jig
K: Amin
|:ABA c2d|edc B2A|GAG B2c|dge dBG|
ABA c2d|edc Bcd|e2A AB^G|A3 a2B:|
|:c3/2d/2e/2f/2 g2a|gec gec|G3/2A/2B/c/2 d2e|dBg dBG|
c3/2d/2e/2f/2 g2a|gec ce^g|a2A AB^G|A3 a2B:||
